svg/blobs-icons/no-decorations/magic-stick.svg

<svg xmlns="http://www.w3.org/2000/svg" preserveAspectRatio="xMidYMid" width="216" height="220"><defs><style>.cls-5{fill:#000;opacity:.25}</style></defs><g id="group-124svg"><path d="M211.958 219.054a3.57 3.57.0 01-2.561-1.073L83.218 89.687a3.593 3.593.0 015.122-5.038l126.179 128.296a3.591 3.591.0 01-2.561 6.109z" id="path-1" fill-rule="evenodd" style="fill:#142a3b"/><path d="m17.22 17.511 51.631 17.498L103.271.014l-5.737 52.494 51.631 29.163-55.942 13.116-12.899 56.876-28.683-52.494L.01 105.002l34.42-34.997-17.21-52.494z" id="path-2" fill-rule="evenodd" style="fill:#fbb713"/><path d="m90.461 45.388 7.395 4.177L103.271.014l-8.834 8.98-3.976 36.394z" id="path-3" class="cls-5" fill-rule="evenodd"/><path d="M138.182 75.468 86.149 87.666l-11.965 52.761 6.14 11.236 12.899-56.876 55.942-13.116-10.983-6.203z" id="path-4" class="cls-5" fill-rule="evenodd"/><path d="M44.567 92.049 8.772 96.094.01 105.002l48.633-5.495-4.076-7.458z" id="path-5" class="cls-5" fill-rule="evenodd"/></g></svg>

<svg xmlns="http://www.w3.org/2000/svg" xmlns:xlink="http://www.w3.org/1999/xlink" preserveAspectRatio="xMidYMid" width="216" height="220" viewBox="0 0 216 220"><defs><style>.cls-3{fill:#142a3b}.cls-4{fill:#fbb713}.cls-5{fill:#000;opacity:.25}</style></defs><g id="group-124svg"><path d="M211.958 219.054C211.028 219.054 210.1 218.698 209.397 217.981L83.218 89.687C81.827 88.273 81.846 85.998 83.26 84.607 84.674 83.214 86.948 83.233 88.34 84.649L214.519 212.945C215.91 214.359 215.89 216.635 214.477 218.023 213.777 218.711 212.867 219.054 211.958 219.054z" id="path-1" class="cls-3" fill-rule="evenodd"/><path d="M17.22 17.511S68.851 35.009 68.851 35.009 103.271.014 103.271.014s-5.737 52.494-5.737 52.494 51.631 29.163 51.631 29.163S93.223 94.787 93.223 94.787s-12.899 56.876-12.899 56.876S51.641 99.169 51.641 99.169.01 105.002.01 105.002 34.43 70.005 34.43 70.005 17.22 17.511 17.22 17.511z" id="path-2" class="cls-4" fill-rule="evenodd"/><path d="M90.461 45.388s7.395 4.177 7.395 4.177S103.271.014 103.271.014s-8.834 8.98-8.834 8.98-3.976 36.394-3.976 36.394z" id="path-3" class="cls-5" fill-rule="evenodd"/><path d="M138.182 75.468S86.149 87.666 86.149 87.666s-11.965 52.761-11.965 52.761 6.14 11.236 6.14 11.236S93.223 94.787 93.223 94.787s55.942-13.116 55.942-13.116-10.983-6.203-10.983-6.203z" id="path-4" class="cls-5" fill-rule="evenodd"/><path d="M44.567 92.049S8.772 96.094 8.772 96.094.01 105.002.01 105.002 48.643 99.507 48.643 99.507s-4.076-7.458-4.076-7.458z" id="path-5" class="cls-5" fill-rule="evenodd"/></g></svg>
